X: 486
T: Sto mi e Milo
B: incoming
M:7/8
L:1/8
Q: 1/4=144
K:D clef=treble
V:1 
%%MIDI program 23
  [DA,][CA,][DA,][E2C2][E2C2]|[A,F,][E2C2] [E2C2][E2C2]|\
  [F3D3] [E2C2][D2B,2]       |[F2D2][GE] [A4F4]        |
  [B3G3][A2F2][GE][FD]       |[E2C2][DB,][A2F2][G2E2]  |\
  [F3D3][E2C2][E2C2]         |[D3D,3]z4                |
|:[D3A,3][F2D2][G2E2]        |[A3F3][A4F4]             |\
  [B3G3][A2F2][G2E2]         |[A7F7]                   |
  [B3G3][A2F2][GE][FD]       |[E2C2][DB,][A2F2][G2E2]  |\
  [F3D3][E2C2][E2C2]         |[D3D,3][D3D,3]z          :|
% abcbook-tune_id 63cb084323865998453d345d
% abcbook-tune_composer_id 
% abcbook-boost 0
% abcbook-difficulty 0
% abcbook-tags balkan dances
% abcbook-tablature 
% abcbook-transpose 
% abcbook-tuning 
% abcbook-lastupdated 1674250307968
% abcbook-soundfonts 
% abcbook-repeats 1


